X:1
T:Ein feste Burg (3vv-1,CLIII)
T:Michael Praetorius
T:Ein feste Burg (3vv-1,CLIII)
C:Michael Praetorius
%%score [ 1 2 3 ]
L:1/8
Q:1/4=160
M:4/2
K:F
V:1 treble-8 nm="Tenor 1" snm="T 1"
V:2 treble-8 nm="Tenor 2" snm="T 2"
V:3 bass nm="Bass" snm="B"
V:1
 z4 c4 c8 | d4 e8 f4 | d4 c4 d4 e4 | f6 f2 e8 | z16 | z4 B4 A3 G F2 f2 | e4 d4 c4 d4 | B12 A4 | %8
w: 1.Ein fes-|te Burg ist|un- * * *|* ser Gott,||ein gu- te Wehr, ein|gu- te Wehr und|Waf- *|
w: Er hilft|uns frei aus|al- * * *|* ler Not,||die uns jetzt hat, die|uns jetzt hat be-|trof- *|
w: 3.Mit un-|ser Macht ist|nichts _ _ _|_ ge- tan,||wir sind gar bald, wir|sind gar bald ver-|lo- *|
w: Es streitt|für uns der|rech- * * *|* te Mann,||den Gott hat selbst, den|Gott hat selbst er-|ko- *|
 G8 A8 :| z4 F4 A6 B2 | c4 d6 c2 c4- | c4 =B4 c8 | z4 F4 c4 d4 | e4 f6 e2 f4- | f2 e2 d4 e8 | %15
w: * fen.|Der alt _|_ bö- * *|* se Feind,|mit Ernst ers|jetzt meint. Groß Macht|_ und viel List,|
w: * fen.|||||||
w: * ren.|Frag- stu _|_ _ _ _|||||
w: * ren.|||||||
 z8 d2 d4 c2 | d2 B2 A4 z4 d2 d2- | d2 c2 d2 B2 A6 f2 | e4 d4 c6 d2 | B4 A4 G8 | F16- | F16 |] %22
w: sein grau- sam|Rüs- tung ist, sein grau-|* sam Rüs- tung ist. Auf|Erdn ist nicht seins-|glei- * *|chen.|_|
w: |||||||
w: |||||||
w: |||||||
V:2
 z4 A4 A8 | A4 G8 B4- | B4 A8 G4 | A4 =B4 c6 c2 | B2 A2 G2 B2 A2 G2 F2 A2 | GF F4 E2 F3 G A4 | %6
w: 1.Ein fes-|te Burg ist|_ un- *|* ser Gott, ein|gu- te Wehr, ein gu- te Wehr und|Waf- * * * fen, _ _|
w: Er hilft|uns frei aus|_ al- *|* ler Not, die|uns jetzt hat, die uns jetzt hat be-|trof- * * * fen, _ _|
w: 3.Mit un-|ser Macht ist|_ nichts _|_ ge- tan, wir|sind gar bald, wir sind gar bald ver-|lo- * * * ren, _ _|
w: Es streitt|für uns der|_ rech- *|* te Mann, den|Gott hat selbst, den Gott hat selbst er-|ko- * * * ren, _ _|
 G2 c4 =B2 c2 A2 _B2 A2 | G2 F2 D2 E2 F2 G2 F4- | F2 ED E4 F8 :| z8 z4 F4 | E4 G4 E8 | D8 E4 A4 | %12
w: ein gu- te Wehr und Waf- *||* * * * fen.|Der|alt bö- se|Feind, mit Ernst|
w: die uns jetzt hat be- trof- *||* * * * fen.||||
w: wir sind gar bald ver- lo- *||* * * * ren.|Frag-|stu wer er|ist, er heisst|
w: den Gott hat selbst er- ko- *||* * * * ren.||||
 G3 A B2 A2 G2 A4 B2- | B2 c4 d2 B4 A2 d2- | d2 c4 =B2 c8 | B4 B2 A2 B4 A2 G2 | %16
w: ers _ _ jetzt meint. mit Ernst|_ ers jetzt meint. Groß Macht|_ und viel List,|sein grau- sam Rüs- * *|
w: ||||
w: Je- * * sus Christ, er heisst|_ Je- sus Christ, der Herr|_ Ze- ba- oth,|und ist kein an- * *|
w: ||||
 ^F2 G2 =F6 E2 F2 D2 | F2 E2 D3 E F4 z2 D2 | A4 B4 A8 | G4 F8 E4 | F2 A2 B2 c2 d2 c2 B4 | A16 |] %22
w: * tung ist, sein grau- sam|Rüs- tung ist. _ _ Auf|Erdn ist nicht|seins- glei- *|chen, Auf Erdn ist nicht seins- glei-|chen.|
w: ||||||
w: * der Gott, und ist kein|an- der Gott. _ _ Das|Feld muß er|be- hal- *|ten, das Feld muß er be- hal-|ten.|
w: ||||||
V:3
 F,8 F,8 | F,4 C,8 D,4 | F,12 E,4 | D,4 D,4 C,8 | z2 F,2 E,2 D,2 C,4 D,4 | B,,2 A,,2 G,,4 F,,8 | %6
w: 1.Ein fes-|te Burg ist|un- *|* ser Gott,|ein gu- te Wehr und|Waf- * * fen,|
w: Er hilft|uns frei aus|al- *|* ler Not,|die uns jetzt hat be-|trof- * * fen,|
w: 3.Mit un-|ser Macht ist|nichts _|_ ge- tan,|wir sind gar bald ver-|lo- * * ren,|
w: Es streitt|für uns der|rech- *|* te Mann,|den Gott hat selbst er-|ko- * * ren,|
 z4 G,,4 C,2 F,,2 B,,2 D,2 | G,,2 A,,2 B,,2 C,2 D,2 E,2 F,4 | C,8 F,,8 :| z4 B,,4 F,4 F,,4 | %10
w: ein gu- te Wehr und|Waf- * * * * * *|* fen.|Der alt Der|
w: die uns jetzt hat be-|trof- * * * * * *|* fen.||
w: wir sind gar bald ver-|lo- * * * * * *|* ren.|Frag- stu Frag-|
w: den Gott hat selbst er-|ko- * * * * * *|* ren.||
 A,,4 B,,4 C,4 C,4 | G,,8 C,4 F,,4 | C,4 D,4 E,2 F,4 G,2- | G,2 A,4 G,F, G,2 G,2 F,2 D,2 | %14
w: alt _ _ bö-|se Feind, mit|Ernst ers jetzt meint. Groß|_ Macht _ _ _ Groß Macht und|
w: ||||
w: stu _ _ wer|er ist, er|heisst Je- sus Christ, der|_ Herr _ _ _ der Herr Ze-|
w: ||||
 G,8 C,8 | G,2 G,4 ^F,2 G,4 _E,4 | D,4 D,2 D,4 C,2 D,2 B,,2 | A,,4 B,,3 C, D,8 | %18
w: viel List,|sein grau- sam Rüs- tung|ist, sein grau- sam Rüs- tung|ist. _ _ _|
w: ||||
w: ba- oth,|und ist kein an- der|Gott, und ist kein an- der|Gott. _ _ _|
w: ||||
 z4 z2 B,,2 F,4 F,,4 | G,,4 A,,4 B,,4 C,4 | F,,2 F,2 D,2 C,2 B,,2 A,,2 B,,4 | F,,16 |] %22
w: Auf Erdn ist|nicht seins- glei- *|chen, Auf Erdn ist nicht seins- glei-|chen.|
w: ||||
w: Das Feld muß|er be- hal- *|ten, das Feld muß er be- hal-|ten.|
w: ||||

